X:1
T:Rowsome's Kerry Jig
T:Port Ciarra\'ioch
M:12/8
L:1/8
Q:360
R:slide
Z:B.Black
K:G
B2c|:A3 A2G AcA A2F|G2E A2F G2E E3|
A2A ABc B2G G3| Bcd ~B2G c2B c3:|
|~e3 e2d e2f g2z|G2G G2F G2E EFG|
~A3 ABc ~B2G G3|Bcd BAG ~c2B c3 :|
